!!!SOCIAL_FUNCTION:	songs of war
!!!PDT:	1913
!!!OTL: No_36_Song_of_the_Exhausted_Warrior.krn
!!!REG: Great_Lakes
!!!LANG: Non-Tone
!!!LING_GROUP: Algonquin
**kern	**kern
*staff2	*staff1
*clefF4	*clefF4
*k[b-]	*k[b-]
*M3/4	*M3/4
16r	16f\
=1	=1
8GG/L	8.f\L
8GG/J	.
.	16d\Jk
8GG/L	8.d\L
8GG/J	.
.	16d\Jk
8GG/L	8d\L
8GG/J	8c#\J
=2||	=2||
*M2/4	*M2/4
2r	16d\LL
.	16d\
.	16.c\
.	32c\JJk
.	4A\
=3	=3
2r	4c\
.	8.A\L
.	16F\Jk
=4||	=4||
*M3/4	*M3/4
2.r	8.f\L
.	16d\Jk
.	8.d\L
.	16d\Jk
.	8d\L
.	8c#\J
=5||	=5||
*M2/4	*M2/4
2r	16d\LL
.	16d\
.	16.c\
.	32c\JJk
.	4A\
=6	=6
2r	4c\
.	8.A\L
.	16d\Jk
=7||	=7||
*M3/4	*M3/4
2.r	8.d\L
.	16d\Jk
.	8.c\L
.	16c\Jk
.	8A\L
.	8F\J
=8||	=8||
*M2/4	*M2/4
2r	(16.A\LL
.	32D\JK)
.	8D\J
.	16.D/LL
.	32C/K
.	(16C/
.	16AA/JJ)
=9	=9
2r	8D\L
.	8D\J
.	[4D\
=10	=10
2r	4..D\]
.	16A\
=11	=11
2r	8.A\L
.	16c\Jk
.	8.c\L
.	16A\Jk
=12	=12
2r	8A\L
.	8G\J
.	8.F\L
.	16D\Jk
=13	=13
2r	8D\L
.	8D\J
.	12D/L
.	12D/
.	24C/L
.	24AA/JJ
=14||	=14||
*M3/4	*M3/4
2.r	8C/L
.	8C/J
.	2D\
=15||	=15||
*M2/4	*M2/4
2r	8D\L
.	8D\J
.	8.F\L
.	16D\Jk
=16	=16
2r	(8D/L
.	8AA/J)
.	4AA/
=17	=17
2r	8D\L
.	8D\J
.	8.F\L
.	16D\Jk
=18	=18
2r	8.D/L
.	16AA/Jk
.	8AA/L
.	8D/J
=19	=19
2r	[2D\
=20	=20
2r	2D\]
==	==
*-	*-
